X: 1665
T: Sana Gül Diyemem
C: Ömer Sami Güpgüp
O: Turkey
F: http://compmusic.upf.edu/node/140
N: bestenigar--sarki--aksak--sana_gul--omer_sami_gupgup
N: makam= bestenigar
N: form= sarki
N: usul= aksak = 9/8
M: 9/8
L: 1/16
K: C _2/4B _3/4d  
Q: 1/4=156
%%MIDI tuningsystem comma53
z4 A2_1/4B2 c4 d4 c2 | f4ed c_1/4Bc8-c2  | \
w:  Sa na  gül   |  *  di *  ye *  mem   | 
g4 g2_7/8a2 g2f2 e4 f2 | g8cd c_1/4BA6  | 
w:  öm rün  *  az  *  *  o  |  lur   SAZ  | 
z4 A2_1/4B2 c4 d4 c2 | f4ed c_1/4Bc8-c2  | \
w:  Sa na  gül   |  *  di *  ye *  mem   | 
g4 g2_7/8a2 g2f2 e4 f2 | g8_1/4b_7/8a gba6  | 
w:  öm rün  *  az  *  *  o  |  lur   SAZ  | 
z2_1/4b4g2 _7/8a8 g2 | z2 g4 f2e2 d2c4_1/4BA  | \
w:  Bir  ta nem   |  sev di ğim   | 
_1/4B4 c2d2 {e}d2c2 B{c}A{B}G2 A2 | 
w:  *  gü le  *  ben *  *  *  *  *  *  ze  | 
_1/4B8cd cBc6  | z2e4c2 d8 c2 | z2 c4 _1/4B2c4B4BA  | \
w:  me   SAZ  |  Bir  ta nem   |  sev di ğim   | 
A4 A2_1/4B2 A2G2 ^F4 ^E2 | 
w:  *  gü le  ben *  *  ze  | 
^F8^fg f^ef6  | =d4 ^e2^f2 g2a2 g4 f2 | \
w:  me   SAZ  |  Bağ rı ma  do kun  | 
g8_1/4b8b2  | c'2_1/4b_7/8a a2g2 g2a2 g4 ^f2 | 
w:  san   |  ça lan  *  *  *  saz  *  *  o  | 
g8_7/8ag ^fga6  | g2_7/8a4g2 a2g2 a4 _1/4b2 | \
w:  lur   SAZ  |  Sa zım da  in *  *  le  | 
=d'c' _1/4b_7/8ag2 a2ag fe^f6  | 
w:  yen   | 
z4 g2_7/8a2 g2^f2 e4 f2 | g8_1/4b_7/8a gba6  | \
w:  te le  ben *  *  ze  |  me   SAZ  | 
z2_1/4b4g2 _7/8a8 g2 | z2 g4 f2e2 d2c4_1/4BA  | 
w:  Bir  ta nem   |  sev di ğim   | 
_1/4B4 c2d2 {e}d2c2 B{c}A{B}G2 A2 | \
w:  *  gü le  *  ben *  *  *  *  *  *  ze  | 
_1/4B8cd cBc6  | z2e4c2 d8 c2 | z2 c4 _1/4B2c4B4BA  | 
w:  me   SAZ  |  Bir  ta nem   |  sev di ğim   | 
A4 A2_1/4B2 A2G2 ^F4 ^E2 | ^F8FG F^EF6  | |


